X:715
T:Miss Hepburn Belches
S:Adam Rennie 78rpm
Z:Nigel Gatherer
M:2/4
L:1/8
K:G
D    | GD GD | AD AD | Bd c/B/A/G/ | FE  DE/F/ |
       GD GD | AD A2 | Bd c/B/A/G/ | G2  G    :|
A    | dA dA | eA eA | fe/d/ e^c   | d=c BA    |
       GD GD | AD A2 | Bd c/B/A/G/ |1 G2  G   :|
                                    2 G2      ||
G/A/B/c/ | d2 ed | B2 c2 | d2 ez   | d2  ez    |
           d2 ed | GB dB | A>A BA  | G2       :|
<end>
<start>
